static/img/kroki/8c0c76f2fedc720f2a83688e8b112a11.svg

<?xml version="1.0" encoding="us-ascii" standalone="no"?><svg xmlns="http://www.w3.org/2000/svg" xmlns:xlink="http://www.w3.org/1999/xlink" contentStyleType="text/css" height="152px" preserveAspectRatio="none" style="width:266px;height:152px;" version="1.1" viewBox="0 0 266 152" width="266px" zoomAndPan="magnify"><defs/><g><!--class aws_account--><g id="elem_aws_account"><rect codeLine="22" fill="#3D176E" height="39.7891" id="aws_account" rx="2.5" ry="2.5" style="stroke:#000D19;stroke-width:0.5;" width="149" x="58.5" y="106.79"/><ellipse cx="73.5" cy="126.6845" fill="#ADD1B2" rx="11" ry="11" style="stroke:#181818;stroke-width:1.0;"/><path d="M76.4688,132.3252 Q75.8906,132.622 75.25,132.7627 Q74.6094,132.9189 73.9063,132.9189 Q71.4063,132.9189 70.0781,131.2783 Q68.7656,129.622 68.7656,126.497 Q68.7656,123.372 70.0781,121.7158 Q71.4063,120.0595 73.9063,120.0595 Q74.6094,120.0595 75.25,120.2158 Q75.9063,120.372 76.4688,120.6689 L76.4688,123.3877 Q75.8438,122.8095 75.25,122.5439 Q74.6563,122.2627 74.0313,122.2627 Q72.6875,122.2627 72,123.3408 Q71.3125,124.4033 71.3125,126.497 Q71.3125,128.5908 72,129.6689 Q72.6875,130.7314 74.0313,130.7314 Q74.6563,130.7314 75.25,130.4658 Q75.8438,130.1845 76.4688,129.6064 L76.4688,132.3252 Z " fill="#000000"/><text fill="#D9B8FF" font-family="Helvetica" font-size="17" lengthAdjust="spacing" textLength="107" x="92.5" y="132.5698">aws_account</text></g><!--class aws_s3_account_settings--><g id="elem_aws_s3_account_settings"><rect codeLine="24" fill="#3D176E" height="39.7891" id="aws_s3_account_settings" rx="2.5" ry="2.5" style="stroke:#000D19;stroke-width:0.5;" width="252" x="7" y="7"/><ellipse cx="22" cy="26.8945" fill="#ADD1B2" rx="11" ry="11" style="stroke:#181818;stroke-width:1.0;"/><path d="M24.9688,32.5352 Q24.3906,32.832 23.75,32.9727 Q23.1094,33.1289 22.4063,33.1289 Q19.9063,33.1289 18.5781,31.4883 Q17.2656,29.832 17.2656,26.707 Q17.2656,23.582 18.5781,21.9258 Q19.9063,20.2695 22.4063,20.2695 Q23.1094,20.2695 23.75,20.4258 Q24.4063,20.582 24.9688,20.8789 L24.9688,23.5977 Q24.3438,23.0195 23.75,22.7539 Q23.1563,22.4727 22.5313,22.4727 Q21.1875,22.4727 20.5,23.5508 Q19.8125,24.6133 19.8125,26.707 Q19.8125,28.8008 20.5,29.8789 Q21.1875,30.9414 22.5313,30.9414 Q23.1563,30.9414 23.75,30.6758 Q24.3438,30.3945 24.9688,29.8164 L24.9688,32.5352 Z " fill="#000000"/><text fill="#D9B8FF" font-family="Helvetica" font-size="17" lengthAdjust="spacing" textLength="210" x="41" y="32.7798">aws_s3_account_settings</text></g><!--link aws_s3_account_settings to aws_account--><g id="link_aws_s3_account_settings_aws_account"><path codeLine="26" d="M133,47.22 C133,62.49 133,83.92 133,100.53 " fill="none" id="aws_s3_account_settings-to-aws_account" style="stroke:#1A83AF;stroke-width:2.0;"/><polygon fill="#1A83AF" points="133,105.41,137,96.41,133,100.41,129,96.41,133,105.41" style="stroke:#1A83AF;stroke-width:2.0;"/></g><!--SRC=[XP31Qi9048RlFiM2Py4qj2QNGYf8Uv5IUoj59jbPNKnsPMQisD9tRzHQjedHw_mV_tmpIwjHORMMdQgmof6unolhra1GgOp8RyU-zAJwne29HyrmufrS1QPGeNh4yWF55j0aNfUsM3baLZT1z035Qa5-u_InNWWSrn4w2QXn2SoP2Dby8nZ8w3HFZ6cIpT9-hAFH7ROmJnhf5naEXpfAcyZLLHVl_YDczXDL53vjwWLRcgqL1-gYvPu895k7dl9EnsVGshg5kWrcBqSdSaZ_vhCbQB_TqmPA3jUm8A6NtHh7hQimJRGPdOMVkk1Y_pa5Mvv3KTIngA_UTp3b-1JC6KLg9JuGNTdWhHzbIPnDtWVtOUqF]--></g></svg>

<svg xmlns="http://www.w3.org/2000/svg" width="266" height="152" preserveAspectRatio="none" style="width:266px;height:152px"><rect width="149" height="39.789" x="58.5" y="106.79" fill="#3D176E" rx="2.5" ry="2.5" style="stroke:#000d19;stroke-width:.5"/><circle cx="73.5" cy="126.684" r="11" fill="#ADD1B2" style="stroke:#181818;stroke-width:1"/><path d="M76.469 132.325q-.578.297-1.219.438-.64.156-1.344.156-2.5 0-3.828-1.64-1.312-1.657-1.312-4.782t1.312-4.781q1.328-1.656 3.828-1.656.703 0 1.344.156.656.156 1.219.453v2.719q-.625-.579-1.219-.844-.594-.281-1.219-.281-1.344 0-2.031 1.078-.688 1.062-.688 3.156 0 2.094.688 3.172.688 1.062 2.031 1.062.625 0 1.219-.265.594-.281 1.219-.86v2.72Z"/><text x="92.5" y="132.57" fill="#D9B8FF" font-family="Helvetica" font-size="17" textLength="107">aws_account</text><rect width="252" height="39.789" x="7" y="7" fill="#3D176E" rx="2.5" ry="2.5" style="stroke:#000d19;stroke-width:.5"/><circle cx="22" cy="26.895" r="11" fill="#ADD1B2" style="stroke:#181818;stroke-width:1"/><path d="M24.969 32.535q-.578.297-1.219.438-.64.156-1.344.156-2.5 0-3.828-1.64-1.312-1.657-1.312-4.782t1.312-4.781q1.328-1.656 3.828-1.656.703 0 1.344.156.656.156 1.219.453v2.719q-.625-.578-1.219-.844-.594-.281-1.219-.281-1.343 0-2.031 1.078-.688 1.062-.688 3.156 0 2.094.688 3.172.688 1.062 2.031 1.062.625 0 1.219-.265.594-.281 1.219-.86v2.72Z"/><text x="41" y="32.78" fill="#D9B8FF" font-family="Helvetica" font-size="17" textLength="210">aws_s3_account_settings</text><path fill="none" d="M133 47.22v53.31" style="stroke:#1a83af;stroke-width:2"/><path fill="#1A83AF" d="m133 105.41 4-9-4 4-4-4 4 9z" style="stroke:#1a83af;stroke-width:2"/></svg>
